X:1054
T:Take This Message To My Mother
C:Joe Buchanan's Scottish Tome - Page 636.1
I:636 1
Z:Carl Allison
R:Waltz
L:1/4
M:3/4
K:G
"G"G2 E | "D7"D2 E | "G"G2 A | "G7"B d2 | "C"e2 g | "G"d2 B | "Em"G2 B | "D7"A3 |
"G"G2 E | "D7"D2 E | "G"G2 A | "G7"B d2 | "C"e2 g | "G"d2 B | "D7"A2 B | "G"G3 |
"C"e2 d | e2 g | e2 d | "G"B G2 | "Em"c2 e | "D7"d2 B | "G"G2 B | "D7"A3 |
"G"G2 E | "D7"D2 E | "G"G2 A | "G7"B d2 | "Em"e2 g | "Bm"d2 B | "D7"A2 B | "G"A3 :|

